X:1
T:Title
%%score ( 1 2 ) ( 3 4 )
L:1/8
Q:1/4=90
M:3/4
K:D
V:1 treble nm="Midi_20"
V:2 treble 
V:3 bass nm="Midi_20"
V:4 bass 
V:1
"^Francis Pott\n(1832-1909)" z2"^Victory (888 with alleluias)""^William Henry Monk\n(1823-89)""^The strife is o'er" F2 F2 | %1
 G6 | F2 A2 A2 | B6 | A2 A2 d2 | c6 | d6 || A2 A2 A2 | B4 A2 | (A2 G2) F2 | A6 ||[M:3/4] F2 F2 F2 | %12
 F4 F2 | (F2 E2) D2 | E6 || A2 A2 A2 | B4 A2 | (A2 G2) F2 | A6 || z2 A2 d2 | c6 | d6 |] %22
V:2
 z2 D2 D2 | D6 | D2 D2 F2 | F6 | F2 D2 F2 | A6 | F6 || F2 F2 F2 | G4 F2 | (F2 B,2) D2 | E6 || %11
w: Al- le-|lu-|ia! Al- le-|lu-|ia! Al- le-|lu-|ia!|||||
[M:3/4] D2 D2 D2 | D4 C2 | (D2 B,2) D2 | C6 || C2 F2 E2 | D4 F2 | (F2 B,2) D2 | E6 || z2 A2 F2 | %20
w: ||||||||Al- le-|
 E6 | F6 |] %22
w: lu-|ia!|
V:3
 z2 A,2 A,2 | B,6 | A,2 F,2 A,2 | D6 | C2 D2 D2 | E6 | D6 || D2 D2 D2 | D4 D2 | (C2 E2) D2 | C6 || %11
[M:3/4]"^1. The strife is o'er, the battle done;\nNow is the Victor's triumph won;\nNow let the song of praise be sung,\n'Alleluia!'\n\n2. The powers of death have done their worst,\nBut Christ their legions hath dispersed;\nLet shouts of holy joy outburst,\n'Alleluia!'\n\n3. The three sad days have quickly sped;\nHe rises glorious from the dead;\nAll glory to our risen Head!\n'Alleluia!'\n" A,2 A,2 A,2 | %12
 B,4 A,2 | (A,2 G,2) F,2 | A,6 || A,2 D2 C2 | %16
"^4. He brake the age-bound chains of hell;\nThe bars from heaven's high portals fell;\nLet hymns of praise His triumph tell.\n'Alleluia!'\n\n5. Lord, by the stripes which wounded Thee,\nFrom death's dread sting Thy servants free,\nThat we may live, and sing to Thee,\n'Alleluia!'" B,4 D2 | %17
 (C2 E2) D2 | C6 || z2 D2 A,2 | A,6 | A,6 |] %22
V:4
 z2 D,2 D,2 | G,,6 | D,2 D,2 D,2 | B,,6 | F,2 F,2 D,2 | A,6 | D,6 || D,2 D,2 D,2 | G,4 D,2 | %9
 (F,2 E,2) B,2 | A,6 ||[M:3/4] D,2 D,2 D,2 | B,,4 F,2 | (D,2 E,2) B,,2 | A,,6 || F,2 D,2 D,2 | %16
 G,4 D,2 | (F,2 E,2) B,2 | A,6 || z2 F,2 D,2 | A,,6 | D,6 |] %22

